!!!ONB: MCCC : IJH0427_04 : Extracted Monophonic Melody
!!!COM: Haydn, Joseph
!!!OPR: String Quartet in D major
!!!OMV: 4
!!!SCT: Hob.III:30 ; Op.17 No.6
!!!ODT: 1771///
**kern
*thru
*k[f#c#]
*D:
*clefG
*M2/4
8ff#
=1
8gg
8bb
16ee
16ff#
16gg
16ee
=2
8ff#
8aa
8r
8dd
=3
8ee
8gg
16cc#
16dd
16ee
16cc#
=4
8dd
8ff#
4r
=5
2r
=6
8r
16ccc#
16ddd
4dd
=7
2dd[
=8
8dd]
16ccc#
16ddd
4dd
=9
2dd[
=10
8dd]
16ccc#
16ddd
4dd[
=11
8dd]
8cc#
4gg
=12
4ff#
8.gg#
32ff#
32gg#
=13
8aa
8ee
4ccc#[
=14
4ccc#]
4bb[
=15
4bb]
4aa[
=16
4aa]
4gg#[
=17
4gg#]
4ff#[
=18
4ff#]
8ee
8dd
=19
8cc#
8ee
8aa
8cc#
=20
8dd
8ff#
16b
16cc#
16dd
16b
=21
8cc#
8ee
8r
8a
=22
8b
8dd
16g#
16a
16b
16g#
=23
8a
8cc#
8r
8f#
=24
8g#
8b
4ee
=25
8ff#
8aa
16gg#
16aa
16bb
16gg#
=26
8aa
8ccc#
16bb
16ccc#
16ddd
16bb
=27
8ccc#
8eee
16ddd#
16eee
16fff#
16ddd#
=28
2eee[
=29
4eee]
4ddd[
=30
4ddd]
4ccc#[
=31
4ccc#]
4bb[
=32
4bb]
8aa
8cc#
=33
8b
8aa
8e
8gg#
=34
16a
16cc#
16ee
16cc#
16g#
16b
16ee
16b
=35
16b
16dd
16ee
16dd
16a
16cc#
16ee
16cc#
=36
16a
16cc#
16ee
16cc#
16g#
16b
16ee
16b
=37
16b
16dd
16ee
16dd
16a
16cc#
16ee
16cc#
=38
16d
16b
16ff#
16ee
16dd
16cc#
16b
16a
=39
16g#
16gg#
16bb
16aa
16gg#
16ff#
16ee
16dd
=40
16cc#
16dd
16ee
16dd
16cc#
16b
16a
16g
=41
8f#
8aa
8gg#
8gg
=42
8ff#
8ff
8ee
8dd#
=43
8ee
8ee#
8ff#
8aa
=44
4e
4bb
=45
16aa
16ee
16ee
16ee
16ee
16ee
16ee
16ee
=46
16ff
16ee
16ee
16ee
16ee
16ee
16ee
16ee
=47
16gg#
16ee
16ee
16ee
16ee
16ee
16ee
16ee
=48
16aa
16a
16bb
16a
16ccc
16a
16ddd
16a
=49
4.eee
8ddd#
=50
8eee
8ddd#
8eee
8ddd#
=51
8eee
8ddd
8ccc
8bb
=52
2aa
=53
2ccc
=54
16dd#
16aa
16ccc
16aa
16ccc
16aa
16ccc
16aa
=55
16dd#
16aa
16ccc
16aa
16ccc
16aa
16ccc
16aa
=56
2ee
=57
2bb
=58
4aa
8r
8ee
=59
8ff#
8dd
16b
16cc#
16dd
16b
=60
8ee
8cc#
8r
8cc#
=61
8dd
8b
16g#
16a
16b
16g#
=62
8cc#
8a
8r
8cc#
=63
8dd
8ff#
16b
16cc#
16dd
16b
=64
8cc#
8ee
4r
=65
2r
=66
4.r
8ff#
=67
8gg
8bb
16ee
16ff#
16gg
16ee
=68
8ff#
8aa
8r
8dd
=69
8ee
8gg
16cc#
16dd
16ee
16cc#
=70
8dd
8ff#
4bb[
=71
4bb]
4aa[
=72
4aa]
4gg[
=73
4gg]
4ff#[
=74
4ff#]
4ee[
=75
4ee]
4dd
=76
8cc#
8f#
4ff#
=77
8gg
8ee
16cc#
16dd
16ee
16cc#
=78
8ff#
8dd
8r
8dd
=79
8ee
8cc#
16a#
16b
16cc#
16a#
=80
8dd
8b
8r
8b
=81
8a#
8cc#
8f#
8e
=82
8d
8B
8A#
8f#
=83
8B
8d
16b
16cc#
16dd#
16b
=84
16ee
16ff#
16gg
16ee
16ff#
16gg
16aa
16ff#
=85
8gg
8bb
8a
8g
=86
8f#
8d
8c#
8A
=87
8d
8f#
16dd
16ee
16ff#
16dd
=88
16gg
16aa
16bb
16gg
16aa
16bb
16ccc
16aa
=89
16bb
16aa
16gg
16ff#
16ee
16dd
16cc#
16b
=90
4a
8r
8f#
=91
8g
8b
16e
16f#
16g
16e
=92
8f#
8a
8r
8aa
=93
8bb
8gg
16ee
16ff#
16gg
16ee
=94
8aa
8ff#
8r
8ff#
=95
8gg
8ee
16cc#
16dd
16ee
16cc#
=96
8ff#
8dd
16dd
16ee
16ff#
16dd
=97
16b
16cc#
16dd
16b
16ee
16ff#
16gg
16ee
=98
4cc#
4r
=99
2bb
=100
2aa
=101
2gg
=102
2ff#
=103
2ee
=104
2dd
=105
4cc#
8r
8aa
=106
8bb
8ddd
16gg
16aa
16bb
16gg
=107
8aa
8ccc#
8r
8ff#
=108
8gg
8bb
16ee
16ff#
16gg
16ee
=109
8ff#
8aa
8r
8dd
=110
8ee
8gg
16b
16cc#
16dd
16b
=111
8cc#
8ee
4aa[
=112
4aa]
4gg[
=113
4gg]
4ff#[
=114
4ff#]
4ee[
=115
4ee]
8dd
8f#
=116
8e
8dd
8A
8cc#
=117
16d
16f#
16a
16f#
16c#
16e
16a
16e
=118
16e
16g
16a
16g
16d
16f#
16a
16f#
=119
16d
16f#
16a
16f#
16c#
16e
16a
16e
=120
16e
16g
16a
16g
16d
16f#
16a
16f#
=121
16G
16e
16b
16a
16g
16f#
16e
16d
=122
16c#
16cc#
16ee
16dd
16cc#
16b
16a
16g
=123
16f#
16ff#
16aa
16gg
16ff#
16ee
16dd
16cc
=124
8b
8bb
8aa#
8aa
=125
8gg#
8gg
8ff#
8ee
=126
8dd#
8ee
8ff#
8gg
=127
4a
4ee
=128
16dd
16a
16a
16a
16a
16a
16a
16a
=129
16b-
16a
16a
16a
16a
16a
16a
16a
=130
16cc#
16a
16a
16a
16a
16a
16a
16a
=131
16dd
16d
16ee
16d
16ff
16d
16gg
16d
=132
4.aa
8gg#
=133
8aa
8gg#
8aa
8gg#
=134
8aa
8gg
8ff
8ee
=135
2dd
=136
2ff
=137
16g#
16ff
16ddd
16ff
16ddd
16ff
16ddd
16ff
=138
16g#
16ff
16ddd
16ff
16ddd
16ff
16ddd
16ff
=139
2a
=140
2ee
=141
4dd
8r
8f#
=142
8g
8b
16e
16f#
16g
16e
=143
8f#
8a
8r
8d
=144
8e
8g
16c#
16d
16e
16c#
=145
8d
8f#
8r
8aa
=146
8bb
8gg
16ee
16ff#
16gg
16ee
=147
8aa
8ff#
8r
8ff#
=148
8gg
8ee
16cc#
16dd
16ee
16cc#
=149
8ff#
8dd
4r
=150
8a
8f#
4r
=151
8aa
8ff#
4r
==
*-
